X: 265
T:Peasant,The. JaW.264
M:6/8
Q:120
S:James Winder Ms, Lancashire, 1835-41
R:Jig
O:England
A:Wyresdale,Lancashire
H:1/8
Z:vmp.Chris Partington, Aug 2004
K:D
f2f efg|afd c2A|FAc GBd|efg e3|!
f2f efg|afd A2F|FAc Bgf|edcd3:|!
|:afd ecA|afd ecA|afd Ggf|efd cBA|!
afd ecA|afd ecA|dcd Bgf|edc d2:|]
